X: 22124
T: Kris Kringle's
R: polka
M: 2/4
K: Gmajor
|:G/A/B/c/|dB GA/G/|FA AA/B/|cA FD|G/F/G/A/ B/^A/B/c/|
dB GA/G/|FA AA/B/|cA FD|1 GB:|2 G2||
|:G/A/B/c/|dg ga/g/|fe e2|ec AF|G/F/G/A/ B/^A/B/c/|
dg ga/g/|fe e>^d|ec AF/G/|AG:|

